icons/svg/tgc.svg

<svg t="1568108240030" class="icon" viewBox="0 0 1024 1024" version="1.1" xmlns="http://www.w3.org/2000/svg" p-id="1492" width="200" height="200"><path d="M149.333333 128a64 64 0 0 0-64 64v469.333333a64 64 0 0 0 64 64h74.666667v170.666667l246.506667-170.666667H874.666667a64 64 0 0 0 64-64V192a64 64 0 0 0-64-64H149.333333z m0 64h725.333334v469.333333H758.186667L725.333333 448H522.666667l-32.853334 213.333333h-39.242666L288.853333 773.546667V661.333333H149.333333V192z m428.266667 320h92.8L693.333333 661.333333H554.666667l22.933333-149.333333zM714.666667 341.333333a42.666667 42.666667 0 1 0 85.333333 0 42.666667 42.666667 0 0 0-85.333333 0z m-298.666667 0a42.666667 42.666667 0 1 0 85.333333 0 42.666667 42.666667 0 0 0-85.333333 0z" p-id="1493" ></path></svg>

<svg class="icon" viewBox="0 0 1024 1024" xmlns="http://www.w3.org/2000/svg" width="200" height="200"><path d="M149.333 128a64 64 0 00-64 64v469.333a64 64 0 0064 64H224V896l246.507-170.667h404.16a64 64 0 0064-64V192a64 64 0 00-64-64H149.333zm0 64h725.334v469.333h-116.48L725.333 448H522.667l-32.854 213.333h-39.242L288.853 773.547V661.333h-139.52V192zM577.6 512h92.8l22.933 149.333H554.667L577.6 512zm137.067-170.667a42.667 42.667 0 1085.333 0 42.667 42.667 0 00-85.333 0zm-298.667 0a42.667 42.667 0 1085.333 0 42.667 42.667 0 00-85.333 0z"/></svg>
